X:1
T:Bloody Waterloo
M:4/4
L:1/8
K:G
 z4 z2 D3/2 E/2| G3 G E2 D2| c A4 E G3/2 F/2| D3/2 D/2 D4 zB/2-c/2|\
 d3/2 d/2 ed c/2 B A/2- A z/2 F/2| G2 A c/2 B3/2 A2B/2-c/2| d3/2 d/2 e2 d c/2- BA F/2|\
 G2 A c/2 B3/2 d2 A/2B/2| c/2 B A/2- A3 G A/2 d3/2| A z E G2 F D3/2 D/2|\
 D4 z4|
